Sources/Octicons.swift/Resources/Media.xcassets/screen-full-24.imageset/screen-full-24.svg

<svg xmlns="http://www.w3.org/2000/svg" viewBox="0 0 24 24" width="24" height="24">  <path fill-rule="evenodd" clip-rule="evenodd" d="M4.75 4.5C4.61193 4.5 4.5 4.61193 4.5 4.75V8.25C4.5 8.66421 4.16421 9 3.75 9C3.33579 9 3 8.66421 3 8.25V4.75C3 3.7835 3.7835 3 4.75 3H8.25C8.66421 3 9 3.33579 9 3.75C9 4.16421 8.66421 4.5 8.25 4.5H4.75ZM15 3.75C15 3.33579 15.3358 3 15.75 3H19.25C20.2165 3 21 3.7835 21 4.75V8.25C21 8.66421 20.6642 9 20.25 9C19.8358 9 19.5 8.66421 19.5 8.25V4.75C19.5 4.61193 19.3881 4.5 19.25 4.5H15.75C15.3358 4.5 15 4.16421 15 3.75ZM3.75 15C4.16421 15 4.5 15.3358 4.5 15.75V19.25C4.5 19.3881 4.61193 19.5 4.75 19.5H8.25C8.66421 19.5 9 19.8358 9 20.25C9 20.6642 8.66421 21 8.25 21H4.75C3.7835 21 3 20.2165 3 19.25V15.75C3 15.3358 3.33579 15 3.75 15ZM20.25 15C20.6642 15 21 15.3358 21 15.75V19.25C21 20.2165 20.2165 21 19.25 21H15.75C15.3358 21 15 20.6642 15 20.25C15 19.8358 15.3358 19.5 15.75 19.5H19.25C19.3881 19.5 19.5 19.3881 19.5 19.25V15.75C19.5 15.3358 19.8358 15 20.25 15Z"></path></svg>

<svg xmlns="http://www.w3.org/2000/svg" width="24" height="24" viewBox="0 0 24 24"><path d="M3.75 15a.75.75 0 0 1 .75.75v3.5c0 .138.112.25.25.25h3.5a.75.75 0 0 1 0 1.5h-3.5A1.75 1.75 0 0 1 3 19.25v-3.5a.75.75 0 0 1 .75-.75Zm16.5 0a.75.75 0 0 1 .75.75v3.5A1.75 1.75 0 0 1 19.25 21h-3.5a.75.75 0 0 1 0-1.5h3.5a.25.25 0 0 0 .25-.25v-3.5a.75.75 0 0 1 .75-.75ZM4.75 4.5a.25.25 0 0 0-.25.25v3.5a.75.75 0 0 1-1.5 0v-3.5C3 3.784 3.784 3 4.75 3h3.5a.75.75 0 0 1 0 1.5ZM15 3.75a.75.75 0 0 1 .75-.75h3.5c.966 0 1.75.784 1.75 1.75v3.5a.75.75 0 0 1-1.5 0v-3.5a.25.25 0 0 0-.25-.25h-3.5a.75.75 0 0 1-.75-.75Z"/></svg>
